X:1
T:Cooley's
T:Luttrell's Pass
C:Joe Mills, Galway (1938)
R:reel
D:Dubliners: 25 Years Celebration.
D:Noel Hill &amp; Tony Linnane
D:Frankie Gavin &amp; Paul Brock: Tribute to Joe Cooley
Z:id:hn-reel-48
M:4/4
L:1/8
K:EDor
EB {c}BA B2EB|~B2AB dBAG|(3FED AD BDAD|FDFA dAFD|
EB {c}BA B2EB|~B2AB defg|afec dBAF|1 DEFD E2ED:|2 DEFD E2gf|]
eB~B2 eBgB|eB~B2 gedB|A2FA DAFA|~A2FA defg|
eB~B2 eBgB|eB~B2 defg|afef dBAF|1 DEFD E2gf:|2 DEFD E2ED|]
</abc>
<abc>
